build/svg/cmd/sc_dbdistinctvalues.svg

<?xml version="1.0" encoding="UTF-8" standalone="no"?>
<svg
   xmlns:dc="http://purl.org/dc/elements/1.1/"
   xmlns:cc="http://creativecommons.org/ns#"
   xmlns:rdf="http://www.w3.org/1999/02/22-rdf-syntax-ns#"
   xmlns:svg="http://www.w3.org/2000/svg"
   xmlns="http://www.w3.org/2000/svg"
   xmlns:sodipodi="http://sodipodi.sourceforge.net/DTD/sodipodi-0.dtd"
   xmlns:inkscape="http://www.inkscape.org/namespaces/inkscape"
   viewBox="0 0 16 16"
   version="1.1"
   id="svg6"
   sodipodi:docname="sc_dbdistinctvalues.svg"
   inkscape:version="0.92.5 (2060ec1f9f, 2020-04-08)"
   inkscape:export-filename="/home/jupiter007/Libreoffice yaru theme fullcolor/build/cmd/sc_dbdistinctvalues.png"
   inkscape:export-xdpi="96"
   inkscape:export-ydpi="96"><metadata
   id="metadata12">
  <rdf:RDF>
    <cc:Work
       rdf:about="">
      <dc:format>image/svg+xml</dc:format>
      <dc:type
         rdf:resource="http://purl.org/dc/dcmitype/StillImage" />
    </cc:Work>
  </rdf:RDF>
</metadata>
<defs
   id="defs10" />
<sodipodi:namedview
   pagecolor="#ffffff"
   bordercolor="#666666"
   borderopacity="1"
   objecttolerance="10"
   gridtolerance="10"
   guidetolerance="10"
   inkscape:pageopacity="0"
   inkscape:pageshadow="2"
   inkscape:window-width="1920"
   inkscape:window-height="1011"
   id="namedview8"
   showgrid="true"
   inkscape:zoom="20.85965"
   inkscape:cx="6.8247573"
   inkscape:cy="6.5504268"
   inkscape:window-x="0"
   inkscape:window-y="32"
   inkscape:window-maximized="1"
   inkscape:current-layer="svg6">
  <inkscape:grid
     type="xygrid"
     id="grid832" />
</sodipodi:namedview>
/&amp;gt;<path
   sodipodi:nodetypes="ccccccccccccc"
   id="path825"
   d="m 3.0000002,2.0000309 -1.0000001,1 v 1.3125 l 4.0000004,5.6562497 v 0.03125 2 l 3.9999994,2 v -4 -0.03125 L 14,4.3125309 v -1.3125 l -1,-1 z"
   style="opacity:0.6;fill:#000000;stroke:#000000;stroke-width:2;stroke-linejoin:round;stroke-miterlimit:4;stroke-dasharray:none"
   inkscape:connector-curvature="0" />
<path
   inkscape:connector-curvature="0"
   style="fill:#ffffff"
   d="m 3.0000002,2.0000309 -1.0000001,1 v 1.3125 l 4.0000004,5.6562497 v 0.03125 2 l 3.9999994,2 v -4 -0.03125 L 14,4.3125309 v -1.3125 l -1,-1 z"
   id="path2"
   sodipodi:nodetypes="ccccccccccccc" />
<path
   style="fill:#000000;fill-opacity:1;stroke:#000000;opacity:0.6;stroke-width:2;stroke-miterlimit:4;stroke-dasharray:none;stroke-linejoin:round"
   id="path830"
   fill="#762572"
   d="m12.5625 8.71875-.78125 1.28125h-2.78125v1h2.1875l-.59375 1h-1.59375v1h1l-.4375.71875.875.53125.75-1.25h2.8125v-1h-2.21875l.59375-1h1.625v-1h-1l.4375-.75z" />
<path
   d="m12.5625 8.71875-.78125 1.28125h-2.78125v1h2.1875l-.59375 1h-1.59375v1h1l-.4375.71875.875.53125.75-1.25h2.8125v-1h-2.21875l.59375-1h1.625v-1h-1l.4375-.75z"
   fill="#762572"
   id="path4"
   style="fill:#aee3f8;fill-opacity:1" />
</svg>

<svg xmlns="http://www.w3.org/2000/svg" viewBox="0 0 16 16">/&amp;gt;<path d="M3 2L2 3v1.313l4 5.656V12l4 2V9.969l4-5.656V3l-1-1z" opacity=".6" stroke="#000" stroke-width="2" stroke-linejoin="round"/><path d="M3 2L2 3v1.313l4 5.656V12l4 2V9.969l4-5.656V3l-1-1z" fill="#fff"/><path d="M12.563 8.719L11.78 10H9v1h2.188l-.594 1H9v1h1l-.438.719.876.531.75-1.25H14v-1h-2.219l.594-1H14v-1h-1l.438-.75z" stroke="#000" opacity=".6" stroke-width="2" stroke-linejoin="round"/><path d="M12.563 8.719L11.78 10H9v1h2.188l-.594 1H9v1h1l-.438.719.876.531.75-1.25H14v-1h-2.219l.594-1H14v-1h-1l.438-.75z" fill="#aee3f8"/></svg>
